breakout/templates/svg/icon-linkedin.svg

<svg enable-background="new 0 0 50 50" version="1.1" viewBox="0 0 50 50" xml:space="preserve" xmlns="http://www.w3.org/2000/svg"><title>LinkedIn</title>
<path d="m41 4h-32c-2.76 0-5 2.24-5 5v32c0 2.76 2.24 5 5 5h32c2.76 0 5-2.24 5-5v-32c0-2.76-2.24-5-5-5zm-24 16v19h-6v-19h6zm-6-5.53c0-1.4 1.2-2.47 3-2.47s2.93 1.07 3 2.47c0 1.4-1.12 2.53-3 2.53-1.8 0-3-1.13-3-2.53zm28 24.5h-6v-10c0-2-1-4-3.5-4.04h-0.08c-2.42 0-3.42 2.06-3.42 4.04v10h-6v-19h6v2.56s1.93-2.56 5.81-2.56c3.97 0 7.19 2.73 7.19 8.26v10.7z"/>
</svg>

<?xml version="1.0" encoding="iso-8859-1"?>
<!-- Generator: Adobe Illustrator 21.1.0, SVG Export Plug-In . SVG Version: 6.00 Build 0)  -->
<svg xmlns="http://www.w3.org/2000/svg" xmlns:xlink="http://www.w3.org/1999/xlink" version="1.1" id="Layer_1" x="0px" y="0px" viewBox="0 0 50 50" style="enable-background:new 0 0 50 50;" xml:space="preserve" width="50px" height="50px">
<path d="M41,4H9C6.24,4,4,6.24,4,9v32c0,2.76,2.24,5,5,5h32c2.76,0,5-2.24,5-5V9C46,6.24,43.76,4,41,4z M17,20v19h-6V20H17z   M11,14.47c0-1.4,1.2-2.47,3-2.47s2.93,1.07,3,2.47c0,1.4-1.12,2.53-3,2.53C12.2,17,11,15.87,11,14.47z M39,39h-6c0,0,0-9.26,0-10  c0-2-1-4-3.5-4.04h-0.08C27,24.96,26,27.02,26,29c0,0.91,0,10,0,10h-6V20h6v2.56c0,0,1.93-2.56,5.81-2.56  c3.97,0,7.19,2.73,7.19,8.26V39z"/>
</svg>
